src/assets/imgs/profit-two-page/5.svg

<svg fill="none" height="103" viewBox="0 0 80 103" width="80" xmlns="http://www.w3.org/2000/svg"><g fill="#000"><path d="m44.6875.0234375c-19.2187 0-34.80468 15.6445625-34.80468 34.8046625v12.4805c0 13.7695 10.95698 25.0781 24.72658 25.664v1.5821l-26.89456 7.7929c-4.04297 1.2305-6.738278 4.8633-6.738278 9.0821v10.5473h2.988288v-10.4887c0-2.8711 1.875-5.3907 4.57031-6.211l29.00394-8.4375v-7.7343c2.4609 1.1132 5.2148 1.7578 8.0859 1.7578 2.8125 0 5.5664-.586 8.0859-1.7578v32.8715h2.9883v-34.5708-2.0507-18.3985-.1172c-2.168-11.3672-12.1289-19.5703-23.6719-19.5703h-6.914v24.1407c0 6.6211 3.3398 12.4804 8.3789 16.0546v2.6368c-12.0703-.6446-21.7383-10.5469-21.7383-22.6758v-12.4805c0-17.5195 14.2969-31.81639 31.8164-31.81639s31.8164 14.29689 31.8164 31.81639v64.1602h-.1172v2.9885h.1172 2.9297.1172v-67.2659c.0586-19.1601-15.5274-34.8046625-34.7461-34.8046625zm-15.4687 51.3281625v-21.0938h3.9257c10.0782 0 18.75 7.1485 20.6836 16.9922v18.1055.3515c-2.4609 1.4063-5.2734 2.1094-8.0859 2.1094-9.1406.0586-16.5234-7.3828-16.5234-16.4648z"/><path d="m72.6367 44.5547h-2.7539v51.9726h2.7539z"/><path d="m64.1406 55.3945h-2.7539v40.7227h2.7539z"/></g></svg>

<svg width="80" height="103" viewBox="0 0 80 103" fill="none" xmlns="http://www.w3.org/2000/svg">
<path d="M44.6875 0.0234375C25.4688 0.0234375 9.88282 15.668 9.88282 34.8281V47.3086C9.88282 61.0781 20.8398 72.3867 34.6094 72.9726V74.5547L7.71484 82.3476C3.67187 83.5781 0.976562 87.2109 0.976562 91.4297V101.977H3.96485V91.4883C3.96485 88.6172 5.83985 86.0976 8.53516 85.2773L37.5391 76.8398V69.1055C40 70.2187 42.7539 70.8633 45.625 70.8633C48.4375 70.8633 51.1914 70.2773 53.7109 69.1055V101.977H56.6992V67.4062V65.3555V46.957V46.8398C54.5312 35.4726 44.5703 27.2695 33.0273 27.2695H26.1133V51.4102C26.1133 58.0313 29.4531 63.8906 34.4922 67.4648V70.1016C22.4219 69.457 12.7539 59.5547 12.7539 47.4258V34.9453C12.7539 17.4258 27.0508 3.12891 44.5703 3.12891C62.0898 3.12891 76.3867 17.4258 76.3867 34.9453V99.1055H76.2695V102.094H76.3867H79.3164H79.4336V34.8281C79.4922 15.668 63.9062 0.0234375 44.6875 0.0234375ZM29.2188 51.3516V30.2578H33.1445C43.2227 30.2578 51.8945 37.4063 53.8281 47.25V65.3555V65.707C51.3672 67.1133 48.5547 67.8164 45.7422 67.8164C36.6016 67.875 29.2188 60.4336 29.2188 51.3516Z" fill="black"/>
<path d="M72.6367 44.5547H69.8828V96.5273H72.6367V44.5547Z" fill="black"/>
<path d="M64.1406 55.3945H61.3867V96.1172H64.1406V55.3945Z" fill="black"/>
</svg>
